X:17
T:The Guitar Master
C:Bob Massie
H:2000
N:Paul Tonberg is, in my opinion, just the best guitar technician in
N:Scotland.  This is for him.
M:4/4
L:1/8
Q:1/4=160
K:A
f/B3/2 B3/2c/ f3/2e/ f/a3/2 |f/B3/2 B3/2c/ a/g/f/e/ c3/2e/ |f/B3/2 B3/2c
/ f3/2e/ f/a3/2 |e/d/c/A/ a3/2f/ e/A3/2 A2 |
f/B3/2 B3/2c/ f3/2e/ f/a3/2 |f/B3/2 B3/2c/ a/g/f/e/ c3/2e/ |f/B3/2 B3/2c
/ f3/2e/ f/a3/2 |A3/2c/ a/e3/2 c/A3/2 A2 |
B,3/2B,/ B,/F3/2 B,3/2B,/ B,/F3/2 |A/F3/2 E3/2D/ C/A,3/2 A,2 |B,3/2B,/ B
,/F3/2 B,3/2B,/ B,/F3/2 |A,/B,/C/E/ A3/2F/ E/A,3/2 A,2 |
B,3/2B,/ B,/F3/2 B,3/2B,/ B,/F3/2 |A/F3/2 E3/2D/ C/A,3/2 A,2 |B,/D3/2 C/
E3/2 D/F3/2 E2 |A/G/F/E/ A3/2E/ C/A,3/2 A,2 |]
